X:35
T:Miss Irene Weldrum's Welcome to Bon Accord
R:strathspey
M:C|
Q:1/2=70
K:D
a>g|f>ed<f A3d|B<Ad>A B2A>B|d2f<d a>fe<d|f2e2 e2a>g|
f>ed<f A3d|B<Ad>A B2A>B|d2c>d e>fa<e|f2d2 d2:||
f>g|a>gf<a f>ed>e|f<ad<A B2AB|
d2f<d a>fe<d|1 f2e2 e2f>g|
a>gf<a f>ed>e|f<ad<A B2AB|
d2c>d e>fa<e|f2d2 d2:|2 f2e2 e2a>g|
f>ed<f A3d|B<Ad>A B2A>B|d2c>d e>fa<e|f2d2 d2||
e<f|A3B A>Bd>A|B<ed>A B2A>B|d2f<d a>fe<d|f2e2 e2e<f|
A3B A>Bd>A|B<ed>A B2A>B|d2c>d e>fa<e|f2d2 d2:||
f>g|a>gf<a g>fe<g|f>ed<f e>Ac<e|
d2f<d a>fe<d|1 f2e2 e2f>g|
a>gf<a g>fe<g|f>ed<f e>Ac<e|
d2c>d e>fa<e|f2d2 d2:|2 f2e2 e2a>g|
f>ga>f e>de<f|a>ef<d B2A>B|d2c>d e>fa<e|f2d2 d2||
